X:39
T: Úgy fáj az én gyönge szívem
O: Lészped (Bákó), 1932
Q: 1/4=100
M:2/4
L:1/4
K:F
(3:2:2 F G/ A/A/ | A/A/A/A/ | 
A/G/ c/B/ | A/A/ G | F2 z | 
c/A/ c | G2 | (3:2:2 FE/ D | (3:2:2 C2F | 
F/E/D/C/ | F/E/ D | D z | 

